data/images/cardImages/manaSymbols/0.svg

<svg xmlns="http://www.w3.org/2000/svg" version="1" width="600" height="600"><circle cx="300" cy="300" r="300" fill="#cbc2bf"/><path d="m304 493c27 0 79-14 79-169 0-166-45-217-87-217-34 0-76 26-76 169 0 168 49 217 84 217m0 40c-91 0-164-88-163-225 0-111 60-243 155-243 101 0 166 94 166 219 0 213-123 249-159 249" fill="#130c0e"/></svg>

<?xml version="1.0" encoding="UTF-8" standalone="no"?>
<!DOCTYPE svg PUBLIC "-//W3C//DTD SVG 1.1//EN" "http://www.w3.org/Graphics/SVG/1.1/DTD/svg11.dtd">
<svg width="100%" height="100%" viewBox="0 0 600 600" version="1.1" xmlns="http://www.w3.org/2000/svg" xmlns:xlink="http://www.w3.org/1999/xlink" xml:space="preserve" xmlns:serif="http://www.serif.com/" style="fill-rule:evenodd;clip-rule:evenodd;stroke-linejoin:round;stroke-miterlimit:2;">
    <g id="Layer1">
        <circle cx="300" cy="300" r="300" style="fill:rgb(203,194,191);"/>
        <path d="M304,493C331,493 383,479 383,324C383,158 338,107 296,107C262,107 220,133 220,276C220,444 269,493 304,493M304,533C213,533 140,445 141,308C141,197 201,65 296,65C397,65 462,159 462,284C462,497 339,533 303,533" style="fill:rgb(19,12,14);fill-rule:nonzero;"/>
    </g>
</svg>
